public/assets/icons/aws.svg

<svg width="48" height="48" viewBox="0 0 48 48" fill="none" xmlns="http://www.w3.org/2000/svg">
<g clip-path="url(#clip0_30_69)">
<path d="M13.5271 21.529C13.5271 22.126 13.5911 22.609 13.7031 22.964C13.8311 23.319 13.9901 23.706 14.2141 24.125C14.2941 24.254 14.3261 24.383 14.3261 24.496C14.3261 24.657 14.2301 24.818 14.0231 24.98L13.0171 25.657C12.8731 25.754 12.7301 25.802 12.6021 25.802C12.4421 25.802 12.2831 25.721 12.1231 25.576C11.8991 25.334 11.7081 25.076 11.5481 24.818C11.3881 24.544 11.2291 24.238 11.0531 23.867C9.80811 25.35 8.24311 26.092 6.35911 26.092C5.01811 26.092 3.94811 25.705 3.16611 24.931C2.38411 24.157 1.98511 23.125 1.98511 21.835C1.98511 20.465 2.46411 19.352 3.43811 18.514C4.41211 17.676 5.70511 17.256 7.34911 17.256C7.89211 17.256 8.45111 17.304 9.04111 17.385C9.63111 17.466 10.2381 17.595 10.8771 17.74V16.563C10.8771 15.338 10.6221 14.483 10.1271 13.983C9.61611 13.483 8.75411 13.241 7.52511 13.241C6.96611 13.241 6.39211 13.305 5.80111 13.451C5.21011 13.596 4.63611 13.773 4.07711 13.999C3.82211 14.112 3.63011 14.176 3.51811 14.209C3.40611 14.241 3.32611 14.257 3.26311 14.257C3.03911 14.257 2.92811 14.096 2.92811 13.757V12.967C2.92811 12.709 2.96011 12.516 3.04011 12.403C3.12011 12.29 3.26411 12.177 3.48711 12.064C4.04611 11.774 4.71611 11.532 5.49911 11.338C6.28111 11.128 7.11111 11.032 7.98911 11.032C9.88911 11.032 11.2781 11.467 12.1721 12.338C13.0501 13.209 13.4971 14.531 13.4971 16.304V21.528L13.5271 21.529ZM7.04511 23.979C7.57211 23.979 8.11511 23.882 8.68911 23.689C9.26411 23.496 9.77511 23.141 10.2061 22.657C10.4611 22.351 10.6531 22.012 10.7491 21.625C10.8451 21.238 10.9091 20.77 10.9091 20.222V19.545C10.4461 19.432 9.95111 19.335 9.44011 19.271C8.92911 19.207 8.43411 19.174 7.93911 19.174C6.86911 19.174 6.08711 19.384 5.56011 19.819C5.03311 20.254 4.77811 20.867 4.77811 21.673C4.77811 22.431 4.97011 22.995 5.36911 23.382C5.75211 23.786 6.31111 23.979 7.04511 23.979ZM19.8651 25.721C19.5781 25.721 19.3861 25.673 19.2581 25.56C19.1301 25.463 19.0191 25.238 18.9231 24.931L15.1711 12.468C15.0751 12.146 15.0271 11.936 15.0271 11.823C15.0271 11.565 15.1551 11.42 15.4101 11.42H16.9751C17.2781 11.42 17.4861 11.468 17.5981 11.581C17.7261 11.678 17.8211 11.903 17.9171 12.21L20.5991 22.884L23.0891 12.21C23.1691 11.888 23.2651 11.678 23.3921 11.581C23.5201 11.484 23.7431 11.42 24.0311 11.42H25.3081C25.6111 11.42 25.8191 11.468 25.9471 11.581C26.0751 11.678 26.1861 11.903 26.2501 12.21L28.7721 23.013L31.5341 12.21C31.6301 11.888 31.7421 11.678 31.8531 11.581C31.9811 11.484 32.1881 11.42 32.4761 11.42H33.9611C34.2161 11.42 34.3601 11.549 34.3601 11.823C34.3601 11.904 34.3441 11.984 34.3281 12.081C34.3121 12.178 34.2801 12.307 34.2161 12.484L30.3691 24.947C30.2731 25.269 30.1611 25.479 30.0341 25.576C29.9071 25.673 29.6991 25.737 29.4271 25.737H28.0541C27.7511 25.737 27.5431 25.689 27.4151 25.576C27.2871 25.463 27.1761 25.254 27.1121 24.931L24.6381 14.531L22.1801 24.915C22.1001 25.237 22.0041 25.447 21.8771 25.56C21.7491 25.673 21.5261 25.721 21.2381 25.721H19.8651ZM40.3791 26.156C39.5491 26.156 38.7191 26.059 37.9211 25.866C37.1231 25.673 36.5001 25.463 36.0851 25.221C35.8301 25.076 35.6541 24.915 35.5901 24.77C35.5261 24.625 35.4941 24.464 35.4941 24.319V23.497C35.4941 23.158 35.6221 22.997 35.8611 22.997C35.9571 22.997 36.0531 23.013 36.1481 23.045C36.2441 23.077 36.3871 23.142 36.5471 23.206C37.0901 23.448 37.6801 23.641 38.3031 23.77C38.9421 23.899 39.5641 23.963 40.2031 23.963C41.2091 23.963 41.9911 23.786 42.5341 23.431C43.0771 23.076 43.3641 22.56 43.3641 21.899C43.3641 21.448 43.2201 21.077 42.9331 20.77C42.6461 20.464 42.1031 20.19 41.3211 19.932L39.0061 19.206C37.8411 18.835 36.9791 18.287 36.4521 17.561C35.9251 16.852 35.6541 16.062 35.6541 15.223C35.6541 14.546 35.7981 13.949 36.0851 13.433C36.3721 12.917 36.7561 12.466 37.2341 12.111C37.7131 11.74 38.2561 11.466 38.8941 11.273C39.5331 11.081 40.2031 11 40.9061 11C41.2571 11 41.6241 11.016 41.9761 11.064C42.3431 11.112 42.6781 11.177 43.0141 11.241C43.3331 11.322 43.6371 11.402 43.9241 11.499C44.2111 11.596 44.4351 11.692 44.5951 11.789C44.8191 11.918 44.9781 12.047 45.0741 12.192C45.1701 12.321 45.2181 12.498 45.2181 12.724V13.482C45.2181 13.821 45.0901 13.998 44.8511 13.998C44.7231 13.998 44.5161 13.934 44.2441 13.805C43.3341 13.386 42.3121 13.176 41.1791 13.176C40.2691 13.176 39.5511 13.321 39.0561 13.627C38.5611 13.933 38.3061 14.401 38.3061 15.062C38.3061 15.513 38.4661 15.9 38.7851 16.207C39.1041 16.513 39.6951 16.82 40.5411 17.094L42.8081 17.82C43.9571 18.191 44.7881 18.707 45.2821 19.368C45.7761 20.029 46.0161 20.787 46.0161 21.625C46.0161 22.318 45.8721 22.947 45.6011 23.495C45.3141 24.043 44.9301 24.527 44.4361 24.914C43.9411 25.317 43.3501 25.607 42.6641 25.817C41.9431 26.043 41.1931 26.156 40.3791 26.156Z" fill="white"/>
<path d="M43.396 33.992C38.144 37.91 30.513 39.99 23.951 39.99C14.756 39.99 6.46998 36.556 0.211976 30.848C-0.283024 30.397 0.163976 29.784 0.754976 30.139C7.52398 34.105 15.873 36.508 24.51 36.508C30.337 36.508 36.739 35.283 42.629 32.767C43.508 32.364 44.258 33.347 43.396 33.992ZM45.583 31.477C44.912 30.606 41.145 31.058 39.437 31.267C38.926 31.331 38.846 30.88 39.309 30.541C42.31 28.413 47.243 29.025 47.818 29.735C48.393 30.461 47.658 35.443 44.849 37.829C44.418 38.2 44.003 38.006 44.194 37.523C44.833 35.927 46.254 32.331 45.583 31.477Z" fill="#FF9900"/>
</g>
<defs>
<clipPath id="clip0_30_69">
<rect width="48" height="48" fill="white"/>
</clipPath>
</defs>
</svg>

<svg xmlns="http://www.w3.org/2000/svg"  viewBox="0 0 48 48" width="48px" height="48px"><path fill="#252f3e" d="M13.527,21.529c0,0.597,0.064,1.08,0.176,1.435c0.128,0.355,0.287,0.742,0.511,1.161 c0.08,0.129,0.112,0.258,0.112,0.371c0,0.161-0.096,0.322-0.303,0.484l-1.006,0.677c-0.144,0.097-0.287,0.145-0.415,0.145 c-0.16,0-0.319-0.081-0.479-0.226c-0.224-0.242-0.415-0.5-0.575-0.758c-0.16-0.274-0.319-0.58-0.495-0.951 c-1.245,1.483-2.81,2.225-4.694,2.225c-1.341,0-2.411-0.387-3.193-1.161s-1.181-1.806-1.181-3.096c0-1.37,0.479-2.483,1.453-3.321 s2.267-1.258,3.911-1.258c0.543,0,1.102,0.048,1.692,0.129s1.197,0.21,1.836,0.355v-1.177c0-1.225-0.255-2.08-0.75-2.58 c-0.511-0.5-1.373-0.742-2.602-0.742c-0.559,0-1.133,0.064-1.724,0.21c-0.591,0.145-1.165,0.322-1.724,0.548 c-0.255,0.113-0.447,0.177-0.559,0.21c-0.112,0.032-0.192,0.048-0.255,0.048c-0.224,0-0.335-0.161-0.335-0.5v-0.79 c0-0.258,0.032-0.451,0.112-0.564c0.08-0.113,0.224-0.226,0.447-0.339c0.559-0.29,1.229-0.532,2.012-0.726 c0.782-0.21,1.612-0.306,2.49-0.306c1.9,0,3.289,0.435,4.183,1.306c0.878,0.871,1.325,2.193,1.325,3.966v5.224H13.527z M7.045,23.979c0.527,0,1.07-0.097,1.644-0.29c0.575-0.193,1.086-0.548,1.517-1.032c0.255-0.306,0.447-0.645,0.543-1.032 c0.096-0.387,0.16-0.855,0.16-1.403v-0.677c-0.463-0.113-0.958-0.21-1.469-0.274c-0.511-0.064-1.006-0.097-1.501-0.097 c-1.07,0-1.852,0.21-2.379,0.645s-0.782,1.048-0.782,1.854c0,0.758,0.192,1.322,0.591,1.709 C5.752,23.786,6.311,23.979,7.045,23.979z M19.865,25.721c-0.287,0-0.479-0.048-0.607-0.161c-0.128-0.097-0.239-0.322-0.335-0.629 l-3.752-12.463c-0.096-0.322-0.144-0.532-0.144-0.645c0-0.258,0.128-0.403,0.383-0.403h1.565c0.303,0,0.511,0.048,0.623,0.161 c0.128,0.097,0.223,0.322,0.319,0.629l2.682,10.674l2.49-10.674c0.08-0.322,0.176-0.532,0.303-0.629 c0.128-0.097,0.351-0.161,0.639-0.161h1.277c0.303,0,0.511,0.048,0.639,0.161c0.128,0.097,0.239,0.322,0.303,0.629l2.522,10.803 l2.762-10.803c0.096-0.322,0.208-0.532,0.319-0.629c0.128-0.097,0.335-0.161,0.623-0.161h1.485c0.255,0,0.399,0.129,0.399,0.403 c0,0.081-0.016,0.161-0.032,0.258s-0.048,0.226-0.112,0.403l-3.847,12.463c-0.096,0.322-0.208,0.532-0.335,0.629 s-0.335,0.161-0.607,0.161h-1.373c-0.303,0-0.511-0.048-0.639-0.161c-0.128-0.113-0.239-0.322-0.303-0.645l-2.474-10.4 L22.18,24.915c-0.08,0.322-0.176,0.532-0.303,0.645c-0.128,0.113-0.351,0.161-0.639,0.161H19.865z M40.379,26.156 c-0.83,0-1.66-0.097-2.458-0.29c-0.798-0.193-1.421-0.403-1.836-0.645c-0.255-0.145-0.431-0.306-0.495-0.451 c-0.064-0.145-0.096-0.306-0.096-0.451v-0.822c0-0.339,0.128-0.5,0.367-0.5c0.096,0,0.192,0.016,0.287,0.048 c0.096,0.032,0.239,0.097,0.399,0.161c0.543,0.242,1.133,0.435,1.756,0.564c0.639,0.129,1.261,0.193,1.9,0.193 c1.006,0,1.788-0.177,2.331-0.532c0.543-0.355,0.83-0.871,0.83-1.532c0-0.451-0.144-0.822-0.431-1.129 c-0.287-0.306-0.83-0.58-1.612-0.838l-2.315-0.726c-1.165-0.371-2.027-0.919-2.554-1.645c-0.527-0.709-0.798-1.499-0.798-2.338 c0-0.677,0.144-1.274,0.431-1.79s0.671-0.967,1.149-1.322c0.479-0.371,1.022-0.645,1.66-0.838C39.533,11.081,40.203,11,40.906,11 c0.351,0,0.718,0.016,1.07,0.064c0.367,0.048,0.702,0.113,1.038,0.177c0.319,0.081,0.623,0.161,0.91,0.258s0.511,0.193,0.671,0.29 c0.224,0.129,0.383,0.258,0.479,0.403c0.096,0.129,0.144,0.306,0.144,0.532v0.758c0,0.339-0.128,0.516-0.367,0.516 c-0.128,0-0.335-0.064-0.607-0.193c-0.91-0.419-1.932-0.629-3.065-0.629c-0.91,0-1.628,0.145-2.123,0.451 c-0.495,0.306-0.75,0.774-0.75,1.435c0,0.451,0.16,0.838,0.479,1.145c0.319,0.306,0.91,0.613,1.756,0.887l2.267,0.726 c1.149,0.371,1.98,0.887,2.474,1.548s0.734,1.419,0.734,2.257c0,0.693-0.144,1.322-0.415,1.87 c-0.287,0.548-0.671,1.032-1.165,1.419c-0.495,0.403-1.086,0.693-1.772,0.903C41.943,26.043,41.193,26.156,40.379,26.156z"/><path fill="#f90" d="M43.396,33.992c-5.252,3.918-12.883,5.998-19.445,5.998c-9.195,0-17.481-3.434-23.739-9.142 c-0.495-0.451-0.048-1.064,0.543-0.709c6.769,3.966,15.118,6.369,23.755,6.369c5.827,0,12.229-1.225,18.119-3.741 C43.508,32.364,44.258,33.347,43.396,33.992z M45.583,31.477c-0.671-0.871-4.438-0.419-6.146-0.21 c-0.511,0.064-0.591-0.387-0.128-0.726c3.001-2.128,7.934-1.516,8.509-0.806c0.575,0.726-0.16,5.708-2.969,8.094 c-0.431,0.371-0.846,0.177-0.655-0.306C44.833,35.927,46.254,32.331,45.583,31.477z"/></svg>
